static/assets/images/networks/moonriver-mono.svg

<svg width="254" height="256" viewBox="0 0 254 256" fill="none" xmlns="http://www.w3.org/2000/svg">
<path fill-rule="evenodd" clip-rule="evenodd" d="M151.496 110.512C146.955 111.815 148.764 113.758 155.453 114.763C163.596 115.987 196.595 115.084 198.079 113.597C198.368 113.305 198.531 112.91 198.531 112.498C198.532 112.086 198.37 111.691 198.08 111.398C196.847 110.16 155.464 109.373 151.496 110.512ZM120.882 121.08C110.597 121.947 106.438 123.185 108.13 124.881C108.489 125.242 115.02 125.934 122.641 126.421C142.037 127.658 146.724 128.492 144.853 130.367C143.976 131.245 131.234 132.419 115.202 133.097C88.4393 134.232 80.2843 135.777 86.8663 138.468C88.4086 139.1 111.401 139.616 137.96 139.616C164.519 139.616 187.512 139.1 189.055 138.468C194.511 136.237 188.956 134.358 173.151 133.092C151.048 131.319 149.206 128.75 168.445 126.529C176.788 125.567 179.451 124.307 176.559 122.693C173.696 121.095 134.268 119.952 120.882 121.08ZM189.176 122.631L186.249 123.91L189.176 125.167C192.777 126.712 214.125 126.84 215.638 125.324C215.928 125.033 216.092 124.639 216.093 124.229C216.093 123.818 215.932 123.423 215.643 123.131C214.049 121.535 192.612 121.13 189.176 122.631ZM72.081 147.498C64.0153 148.08 56.5495 149.093 55.4916 149.748C50.9553 152.557 57.9221 154.081 81.1989 155.376C105.346 156.718 192.575 155.745 200.578 154.045C206.206 152.848 204.751 150.1 197.836 148.858C189.417 147.347 89.1988 146.264 72.081 147.498Z" fill="black"/>
<path fill-rule="evenodd" clip-rule="evenodd" d="M246.973 168.158C251.408 155.231 253.815 141.35 253.815 126.908C253.815 56.8157 197.176 0 127.348 0C57.4993 0 0.881029 56.8157 0.881029 126.908C0.8666 141.271 3.28754 155.532 8.04016 169.08C9.455 173.113 3.25897 177.673 3.25897 177.673C3.25897 177.673 1.41582 179.553 0.907249 180.382C-1.01407 183.512 1.01885 185.636 7.28306 187.428C15.1351 189.674 19.3919 193.009 17.2145 195.21C16.3599 196.077 12.2627 198.434 8.10983 200.449C-5.47401 207.043 -2.64398 209.651 21.5503 212.836C30.4793 214.01 38.4295 215.372 39.2167 215.86C42.2472 217.735 40.3976 220.51 34.0659 223.592C20.5494 230.17 26.4318 233.091 59.4118 236.181C71.7415 237.335 82.2334 238.685 82.7266 239.179C84.582 241.036 80.5726 242.731 70.7831 244.226C61.0887 245.706 56.6198 247.717 58.607 249.708C59.1191 250.221 63.3554 251.614 68.0204 252.802C79.4415 255.711 152.106 257.177 169.511 254.849C185.636 252.693 192.834 250.621 192.834 248.137C192.834 246.159 190.644 245.461 178.904 243.698C175.667 243.213 172.121 242.259 171.022 241.578C167.115 239.16 174.552 237.266 196.67 235.048C208.689 233.842 219.658 232.42 221.044 231.888C225.475 230.184 223.758 226.814 216.979 223.903C210.056 220.93 208.426 217.398 213.266 215.858C214.845 215.356 224.142 213.717 233.924 212.217C243.705 210.716 252.426 208.77 253.304 207.89C255.641 205.549 252.061 202.723 243.065 199.809C229.445 195.397 229.78 192.328 244.341 188.148C248.929 186.83 253.115 185.048 253.646 184.187C254.177 183.325 252.865 180.794 250.73 178.56C250.73 178.56 247.76 175.24 247.026 173.875C246.292 172.51 246.086 170.715 246.973 168.158ZM40.2598 165.67C33.6647 151.383 33.0282 136.294 34.0848 120.584C35.1415 104.874 40.1238 89.6849 48.5723 76.4169C57.0207 63.1489 68.6631 52.2298 82.4252 44.6671C96.1873 37.1043 111.626 33.1415 127.316 33.1442C142.698 33.1405 157.843 36.9477 171.406 44.228C184.969 51.5084 196.531 62.0365 205.066 74.8778C207.288 78.2209 209.287 81.6938 211.054 85.2734C211.136 85.4388 211.217 85.6044 211.298 85.7703L211.312 85.8006C211.356 85.8901 211.399 85.9796 211.442 86.0692C212.604 88.379 213.496 90.2713 213.984 91.827C215.729 97.3895 212.318 98.6487 197.694 99.3051C182.337 99.994 177.911 100.969 180.117 103.178C180.633 103.695 189.019 104.447 198.752 104.849L199.118 104.864C211.742 105.384 217.017 105.602 219.216 109.889C220.795 112.966 220.788 118.14 220.776 127.028L220.776 127.387C220.758 141.994 218.422 155.211 214.364 163.662C212.07 168.438 207.004 171.826 198.811 174.01C196.698 174.573 194.378 175.056 191.844 175.462C185.547 176.472 179.468 177.809 178.333 178.435C174.644 180.47 181.284 182.639 195.606 184.079C203.006 184.822 209.479 185.852 209.994 186.368C212.678 189.057 205.679 190.726 186.702 191.925C160.636 193.573 151.511 194.854 150.818 196.965C150.065 199.262 154.371 200.19 174.498 202.065C192.594 203.752 198.687 205.175 198.687 207.714C198.687 210.917 188.163 211.443 124.059 211.443C71.7079 211.443 56.2774 211.018 51.8567 209.453C48.276 208.185 46.7425 206.953 47.6351 206.059C49.6062 204.085 73.1595 202.01 94.793 201.906C112.895 201.82 132.248 200.064 133.955 198.353C136.921 195.382 128.665 194.045 96.7231 192.323C93.0535 192.125 89.7584 191.948 86.8 191.79C64.0379 190.572 61.2043 190.42 61.0331 189.664C61.0088 189.557 61.0383 189.437 61.072 189.3C61.1028 189.175 61.137 189.036 61.137 188.879C61.137 185.974 68.1374 185.36 111.621 184.449C153.695 183.567 165.716 182.336 160.964 179.394C160.129 178.878 151.424 177.797 141.619 176.996C131.813 176.194 123.136 175.131 122.334 174.634C117.97 171.934 126.386 170.582 153.274 169.668C181.154 168.719 185.9 168.095 183.498 165.689C180.178 162.362 78.202 162.344 74.8818 165.67C72.8141 167.74 75.8198 168.596 89.9831 169.97C117.631 172.651 109.471 176.263 75.77 176.263C64.0807 176.263 56.5523 175.962 51.5131 174.975C45.7733 173.85 42.2444 169.97 40.2598 165.67ZM86.9379 230.004C70.1056 227.867 67.7014 224.061 82.0783 222.31C86.2546 221.801 104.158 221.304 121.864 221.207C164.477 220.973 181.235 223.402 172.139 228.494C167.711 230.974 103.539 232.11 86.9379 230.004Z" fill="black"/>
</svg>

<svg xmlns="http://www.w3.org/2000/svg" fill="none" viewBox="0 0 254 256"><path fill="#000" fill-rule="evenodd" d="M151.496 110.512c-4.541 1.303-2.732 3.246 3.957 4.251 8.143 1.224 41.142.321 42.626-1.166a1.563 1.563 0 0 0 .001-2.199c-1.233-1.238-42.616-2.025-46.584-.886m-30.614 10.568c-10.285.867-14.444 2.105-12.752 3.801.359.361 6.89 1.053 14.511 1.54 19.396 1.237 24.083 2.071 22.212 3.946-.877.878-13.619 2.052-29.651 2.73-26.763 1.135-34.918 2.68-28.336 5.371 1.543.632 24.535 1.148 51.094 1.148s49.552-.516 51.095-1.148c5.456-2.231-.099-4.11-15.904-5.376-22.103-1.773-23.945-4.342-4.706-6.563 8.343-.962 11.006-2.222 8.114-3.836-2.863-1.598-42.291-2.741-55.677-1.613m68.294 1.551-2.927 1.279 2.927 1.257c3.601 1.545 24.949 1.673 26.462.157a1.56 1.56 0 0 0 .005-2.193c-1.594-1.596-23.031-2.001-26.467-.5M72.081 147.498c-8.066.582-15.532 1.595-16.59 2.25-4.536 2.809 2.431 4.333 25.708 5.628 24.147 1.342 111.376.369 119.379-1.331 5.628-1.197 4.173-3.945-2.742-5.187-8.419-1.511-108.637-2.594-125.755-1.36" clip-rule="evenodd"/><path fill="#000" fill-rule="evenodd" d="M246.973 168.158c4.435-12.927 6.842-26.808 6.842-41.25C253.815 56.816 197.176 0 127.348 0 57.499 0 .881 56.816.881 126.908a127 127 0 0 0 7.16 42.172c1.414 4.033-4.782 8.593-4.782 8.593s-1.843 1.88-2.352 2.709c-1.921 3.13.112 5.254 6.376 7.046 7.852 2.246 12.109 5.581 9.932 7.782-.855.867-4.952 3.224-9.105 5.239-13.584 6.594-10.754 9.202 13.44 12.387 8.93 1.174 16.88 2.536 17.667 3.024 3.03 1.875 1.18 4.65-5.151 7.732-13.517 6.578-7.634 9.499 25.346 12.589 12.33 1.154 22.821 2.504 23.315 2.998 1.855 1.857-2.154 3.552-11.944 5.047-9.694 1.48-14.163 3.491-12.176 5.482.512.513 4.748 1.906 9.413 3.094 11.422 2.909 84.086 4.375 101.491 2.047 16.125-2.156 23.323-4.228 23.323-6.712 0-1.978-2.19-2.676-13.93-4.439-3.237-.485-6.783-1.439-7.882-2.12-3.907-2.418 3.53-4.312 25.648-6.53 12.019-1.206 22.988-2.628 24.374-3.16 4.431-1.704 2.714-5.074-4.065-7.985-6.923-2.973-8.553-6.505-3.713-8.045 1.579-.502 10.876-2.141 20.658-3.641 9.781-1.501 18.502-3.447 19.38-4.327 2.337-2.341-1.243-5.167-10.239-8.081-13.62-4.412-13.285-7.481 1.276-11.661 4.588-1.318 8.774-3.1 9.305-3.961.531-.862-.781-3.393-2.916-5.627 0 0-2.97-3.32-3.704-4.685s-.94-3.16-.053-5.717M40.26 165.67c-6.595-14.287-7.232-29.376-6.175-45.086a94 94 0 0 1 14.487-44.167 93.56 93.56 0 0 1 33.853-31.75 93.2 93.2 0 0 1 44.891-11.523 93.2 93.2 0 0 1 44.09 11.084 93.55 93.55 0 0 1 33.66 30.65 94 94 0 0 1 6.232 10.892l.014.03.13.27c1.162 2.309 2.054 4.201 2.542 5.757 1.745 5.563-1.666 6.822-16.29 7.478-15.357.689-19.783 1.664-17.577 3.873.516.517 8.902 1.269 18.635 1.671l.366.015c12.624.52 17.899.738 20.098 5.025 1.579 3.077 1.572 8.251 1.56 17.139v.359c-.018 14.607-2.354 27.824-6.412 36.275-2.294 4.776-7.36 8.164-15.553 10.348q-3.168.844-6.967 1.452c-6.297 1.01-12.376 2.347-13.511 2.973-3.689 2.035 2.951 4.204 17.273 5.644 7.4.743 13.873 1.773 14.388 2.289 2.684 2.689-4.315 4.358-23.292 5.557-26.066 1.648-35.191 2.929-35.884 5.04-.753 2.297 3.553 3.225 23.68 5.1 18.096 1.687 24.189 3.11 24.189 5.649 0 3.203-10.524 3.729-74.628 3.729-52.351 0-67.782-.425-72.202-1.99-3.581-1.268-5.114-2.5-4.222-3.394 1.971-1.974 25.524-4.049 47.158-4.153 18.102-.086 37.455-1.842 39.162-3.553 2.966-2.971-5.29-4.308-37.232-6.03l-9.923-.533c-22.762-1.218-25.596-1.37-25.767-2.126-.024-.107.005-.227.039-.364.03-.125.065-.264.065-.421 0-2.905 7-3.519 50.484-4.43 42.074-.882 54.095-2.113 49.343-5.055-.835-.516-9.54-1.597-19.345-2.398s-18.483-1.865-19.285-2.362c-4.364-2.7 4.052-4.052 30.94-4.966 27.88-.949 32.626-1.573 30.224-3.979-3.32-3.327-105.296-3.345-108.616-.019-2.068 2.07.938 2.926 15.101 4.3 27.648 2.681 19.488 6.293-14.213 6.293-11.69 0-19.218-.301-24.257-1.288-5.74-1.125-9.269-5.005-11.253-9.305m46.678 64.334c-16.832-2.137-19.237-5.943-4.86-7.694 4.177-.509 22.08-1.006 39.786-1.103q63.92-.351 50.275 7.287c-4.428 2.48-68.6 3.616-85.201 1.51" clip-rule="evenodd"/></svg>
